icons/svg/shopping/tea.svg

<?xml version="1.0" encoding="UTF-8" standalone="no"?>
<!-- Created with Inkscape (http://www.inkscape.org/) -->

<svg
   xmlns:dc="http://purl.org/dc/elements/1.1/"
   xmlns:cc="http://creativecommons.org/ns#"
   xmlns:rdf="http://www.w3.org/1999/02/22-rdf-syntax-ns#"
   xmlns:svg="http://www.w3.org/2000/svg"
   xmlns="http://www.w3.org/2000/svg"
   xmlns:sodipodi="http://sodipodi.sourceforge.net/DTD/sodipodi-0.dtd"
   xmlns:inkscape="http://www.inkscape.org/namespaces/inkscape"
   version="1.0"
   width="580"
   height="580"
   id="svg2"
   sodipodi:version="0.32"
   inkscape:version="0.48.4 r9939"
   sodipodi:docname="tea.svg"
   inkscape:output_extension="org.inkscape.output.svg.inkscape">
  <metadata
     id="metadata2975">
    <rdf:RDF>
      <cc:Work
         rdf:about="">
        <dc:format>image/svg+xml</dc:format>
        <dc:type
           rdf:resource="http://purl.org/dc/dcmitype/StillImage" />
        <cc:license
           rdf:resource="http://web.resource.org/cc/PublicDomain" />
        <dc:language>en</dc:language>
        <dc:title></dc:title>
      </cc:Work>
    </rdf:RDF>
  </metadata>
  <sodipodi:namedview
     inkscape:window-height="1004"
     inkscape:window-width="1920"
     inkscape:pageshadow="2"
     inkscape:pageopacity="0.0"
     guidetolerance="10.0"
     gridtolerance="10.0"
     objecttolerance="10.0"
     borderopacity="1.0"
     bordercolor="#666666"
     pagecolor="#ffffff"
     id="base"
     inkscape:zoom="0.46083856"
     inkscape:cx="630.50957"
     inkscape:cy="489.9707"
     inkscape:window-x="1680"
     inkscape:window-y="0"
     inkscape:current-layer="svg2"
     showgrid="false"
     inkscape:window-maximized="1" />
  <defs
     id="defs4">
    <inkscape:perspective
       sodipodi:type="inkscape:persp3d"
       inkscape:vp_x="0 : 290 : 1"
       inkscape:vp_y="0 : 1000 : 0"
       inkscape:vp_z="580 : 290 : 1"
       inkscape:persp3d-origin="290 : 193.33333 : 1"
       id="perspective2441" />
    <inkscape:perspective
       id="perspective3452"
       inkscape:persp3d-origin="30 : 20 : 1"
       inkscape:vp_z="60 : 30 : 1"
       inkscape:vp_y="0 : 1000 : 0"
       inkscape:vp_x="0 : 30 : 1"
       sodipodi:type="inkscape:persp3d" />
    <symbol
       viewBox="244.5 110 489 219.9"
       id="symbol-university">
      <path
         id="path4460"
         d="M79,43l57,119c0,0,21-96,104-96s124,106,124,106l43-133l82-17L0,17L79,43z" />
      <path
         id="path4462"
         d="M94,176l-21,39"
         stroke-width="20"
         stroke="#000000"
         fill="none" />
      <path
         id="path4464"
         d="M300,19c0,10.5-22.6,19-50.5,19S199,29.5,199,19s22.6-19,50.5-19S300,8.5,300,19z" />
      <path
         id="path4466"
         d="M112,216l-16-38L64,88c0,0-9-8-4-35s16-24,16-24"
         stroke-width="20"
         stroke="#000000"
         ill="none" />
    </symbol>
    <inkscape:perspective
       id="perspective4471"
       inkscape:persp3d-origin="372.04724 : 350.78739 : 1"
       inkscape:vp_z="744.09448 : 526.18109 : 1"
       inkscape:vp_y="0 : 1000 : 0"
       inkscape:vp_x="0 : 526.18109 : 1"
       sodipodi:type="inkscape:persp3d" />
    <inkscape:perspective
       id="perspective4668"
       inkscape:persp3d-origin="6 : 4 : 1"
       inkscape:vp_z="12 : 6 : 1"
       inkscape:vp_y="0 : 1000 : 0"
       inkscape:vp_x="0 : 6 : 1"
       sodipodi:type="inkscape:persp3d" />
    <inkscape:perspective
       id="perspective4725"
       inkscape:persp3d-origin="0.5 : 0.33333333 : 1"
       inkscape:vp_z="1 : 0.5 : 1"
       inkscape:vp_y="0 : 1000 : 0"
       inkscape:vp_x="0 : 0.5 : 1"
       sodipodi:type="inkscape:persp3d" />
    <inkscape:perspective
       id="perspective6330"
       inkscape:persp3d-origin="0.5 : 0.33333333 : 1"
       inkscape:vp_z="1 : 0.5 : 1"
       inkscape:vp_y="0 : 1000 : 0"
       inkscape:vp_x="0 : 0.5 : 1"
       sodipodi:type="inkscape:persp3d" />
    <inkscape:perspective
       id="perspective6376"
       inkscape:persp3d-origin="0.5 : 0.33333333 : 1"
       inkscape:vp_z="1 : 0.5 : 1"
       inkscape:vp_y="0 : 1000 : 0"
       inkscape:vp_x="0 : 0.5 : 1"
       sodipodi:type="inkscape:persp3d" />
    <inkscape:perspective
       id="perspective6376-2"
       inkscape:persp3d-origin="0.5 : 0.33333333 : 1"
       inkscape:vp_z="1 : 0.5 : 1"
       inkscape:vp_y="0 : 1000 : 0"
       inkscape:vp_x="0 : 0.5 : 1"
       sodipodi:type="inkscape:persp3d" />
    <inkscape:perspective
       id="perspective6407"
       inkscape:persp3d-origin="0.5 : 0.33333333 : 1"
       inkscape:vp_z="1 : 0.5 : 1"
       inkscape:vp_y="0 : 1000 : 0"
       inkscape:vp_x="0 : 0.5 : 1"
       sodipodi:type="inkscape:persp3d" />
  </defs>
  <g
     id="g1327">
    <path
       d="M 66.275,1.768 C 24.94,1.768 1.704,23.139 1.704,66.804 L 1.704,516.927 C 1.704,557.771 22.599,579.156 63.896,579.156 L 515.92,579.156 C 557.227,579.156 578.149,558.841 578.149,516.927 L 578.149,66.804 C 578.149,24.203 557.227,1.768 514.628,1.768 C 514.624,1.768 66.133,1.625 66.275,1.768 z "
       style="fill:#111;stroke:#eee;stroke-width:3.40799999"
       id="path1329" />
  </g>
  <path
     style="fill:#ffffff;fill-opacity:1;stroke:none"
     inkscape:connector-curvature="0"
     d="m 365.50269,459.88095 c 0,10.40049 -8.47517,18.87566 -18.87566,18.87566 H 214.49739 c -10.40049,0 -18.87566,-8.47517 -18.87566,-18.87566 v -56.62699 c 0,-10.40049 8.47517,-18.87566 18.87566,-18.87566 h 132.12964 c 10.40049,0 18.87566,8.47517 18.87566,18.87566 v 56.62699 z"
     id="path3" />
  <path
     style="fill:none;stroke:#ffffff;stroke-width:37.75131989;stroke-linecap:round;stroke-linejoin:round;stroke-miterlimit:10;stroke-opacity:1"
     inkscape:connector-curvature="0"
     stroke-miterlimit="10"
     d="m 176.74599,271.12433 c 0,0 0,0 -56.62698,0 -56.626978,0 -56.626978,37.75132 -56.626978,56.62699 0,18.87566 37.751318,75.50264 113.253958,75.50264"
     id="path5" />
  <path
     style="fill:#ffffff;fill-opacity:1;stroke:none"
     inkscape:connector-curvature="0"
     d="m 497.63231,233.37302 c -27.44521,0 2.22733,75.50263 -94.60481,75.50263 -45.33933,0 -14.8174,94.37831 -14.8174,94.37831 141.34096,0 114.04675,-150.9109 147.17353,-169.88094 h -37.75132 z"
     id="path7" />
  <g
     transform="matrix(18.875662,0,0,18.875662,44.616366,-12.01058)"
     id="g9"
     style="fill:#ffffff;fill-opacity:1;stroke:none">
    <path
       style="fill:#ffffff;fill-opacity:1;stroke:none"
       inkscape:connector-curvature="0"
       d="M 17.989,12 C 16.524,10.341 14.607,9.187 12.5,9.187 10.393,9.187 8.476,10.341 7.011,12 h 10.978 z"
       id="path11" />
    <path
       style="fill:#ffffff;fill-opacity:1;stroke:none"
       inkscape:connector-curvature="0"
       d="m 6.224,13 c -1.265,1.81 -2.036,3.996 -2.036,5.953 0,4.315 3.721,6.859 8.313,6.859 4.592,0 8.313,-2.544 8.313,-6.859 0,-1.957 -0.771,-4.144 -2.036,-5.953 H 6.224 z"
       id="path13" />
  </g>
  <circle
     transform="matrix(18.875662,0,0,18.875662,44.616366,-12.01058)"
     style="fill:#ffffff;fill-opacity:1;stroke:none"
     sodipodi:ry="1.5"
     sodipodi:rx="1.5"
     sodipodi:cy="7.5"
     sodipodi:cx="12.5"
     cx="12.5"
     cy="7.5"
     r="1.5"
     id="circle15" />
</svg>

<svg width="580" height="580" viewBox="0 0 580 580" fill="none" xmlns="http://www.w3.org/2000/svg">
<g clip-path="url(#clip0)">
<path d="M66.2751 1.76863C24.9401 1.76863 1.7041 23.1396 1.7041 66.8046V516.928C1.7041 557.772 22.5991 579.157 63.8961 579.157H515.92C557.227 579.157 578.149 558.842 578.149 516.928V66.8046C578.149 24.2036 557.227 1.76863 514.628 1.76863C514.624 1.76863 66.1331 1.62563 66.2751 1.76863Z" fill="#111111" stroke="#EEEEEE" stroke-width="3.408"/>
<path d="M365.503 459.882C365.503 470.282 357.027 478.757 346.627 478.757H214.497C204.097 478.757 195.622 470.282 195.622 459.882V403.255C195.622 392.854 204.097 384.379 214.497 384.379H346.627C357.027 384.379 365.503 392.854 365.503 403.255V459.882Z" fill="white"/>
<path d="M176.746 271.125C176.746 271.125 176.746 271.125 120.119 271.125C63.4922 271.125 63.4922 308.876 63.4922 327.752C63.4922 346.628 101.243 403.255 176.746 403.255" stroke="white" stroke-width="37.7513" stroke-miterlimit="10" stroke-linecap="round" stroke-linejoin="round"/>
<path d="M497.632 233.373C470.187 233.373 499.86 308.876 403.028 308.876C357.688 308.876 388.21 403.254 388.21 403.254C529.551 403.254 502.257 252.343 535.384 233.373H497.632Z" fill="white"/>
<path d="M384.171 214.498C356.518 183.183 320.333 161.4 280.562 161.4C240.791 161.4 204.606 183.183 176.954 214.498H384.171Z" fill="white"/>
<path d="M162.098 233.373C138.221 267.538 123.667 308.8 123.667 345.74C123.667 427.188 193.904 475.208 280.581 475.208C367.258 475.208 437.494 427.188 437.494 345.74C437.494 308.8 422.941 267.519 399.063 233.373H162.098V233.373Z" fill="white"/>
<path d="M280.562 157.871C296.199 157.871 308.876 145.195 308.876 129.558C308.876 113.921 296.199 101.244 280.562 101.244C264.925 101.244 252.249 113.921 252.249 129.558C252.249 145.195 264.925 157.871 280.562 157.871Z" fill="white"/>
</g>
<defs>
<clipPath id="clip0">
<path d="M0 0H580V580H0V0Z" fill="white"/>
</clipPath>
</defs>
</svg>
